X: 8478
T: Crarae
R: reel
M: 4/4
K: Dmajor
|:FAAB d3 e|f2 gf edBA|FAAB defb|1 afef d2 dF:|2 afef d2 a2||
|:afef d2 BA|BdAd BdAa|1 afef defd|BdAF E2 a2:|2 afef defb|afef d2 d2||

